!!!OTL: 605. Troestung.
!!!ARE: Europa, Mitteleuropa, Deutschland, Bayern
!!!SCT: E0605
!!!TXL: @@BAR
!!!YEM: Copyright 1995, estate of Helmut Schaffrath.
**kern	**text
*ICvox	*
*M3/4	*
*met(3)	*
*k[f#]	*
*G:	*
!LO:TX:a:t=Bayeriſch.	!
{8gL	1._Schauts
8aJ	.
=1	=1
4.b	au-
8b	-ßi,
4b	wies
=2	=2
(8bqq	.
4cc)	regn't,
4r}	.
{8aL	ſchauts
8bJ	.
=3	=3
4.cc	au-
8cc	-ßi
4cc	wies
=4	=4
(8cc#qq	.
4dd)	gießt,
4r}	.
{8gL	ſchauts
8aJ	.
=5	=5
4.b	au-
8b	-ßi
4b	wies
=6	=6
(8bqq	.
4cc)	Waſ-
4a}	-ſer
{8aL	vom
8bJ	.
=7	=7
4.cc	Dach
8cc	a-
4cc	-bi
=8	=8
2b;}	ſchießt.
{4g	2._Gar'n
=9	=9
4.dd	wunderliebs
8cc	.
4b	.
=10	=10
4b/	Dierndl
4a}	hab
{4a	i
=11	=11
4ee	heut
4dd	woa-
4cc	-nen
=12	=12
4cc	ſehn,
4b}	und
{4b	do
=13	=13
4.dd	hab
8cc	i's
4b	halt
=14	=14
4b/	g'fragt,
4a}	was'
{4a	m
=15	=15
4.ee	Diern-
8dd	-dl
4cc	is
=16	=16
2b}	g'ſchehn.
{4g	3._Unds
=17	=17
4.dd	Dirndl
8cc	rc.
4b	.
=18	=18
4b/	.
4a}	.
{4a	.
=19	=19
4ee	.
4dd	.
4cc	.
=20	=20
4cc	.
4b}	.
{4b	.
=21	=21
4.dd	.
8cc	.
4b	.
=22	=22
4b/	.
4a}	.
{4a	.
=23	=23
4.ee	.
8dd	.
4cc	.
=24	=24
2b}	.
==	==
!!!AGN: Liebes - Lied, Trost
!!!ONB: ESAC (Essen Associative Code) Database: ERK1
!!!AMT: simple triple
!!!AIN: vox
!!!EED: Helmut Schaffrath
!!!EEV: 1.0
!!!GTL: Liebeslieder [Neuere (aus dem 18. bis 19. Jahrh.) - Liebeslust]
!!!URL-scan: https://rosdok.uni-rostock.de/mcrviewer/recordIdentifier/rosdok_ppn745177662/iview2/phys_0428.iview2?x=-128.77276441889308&y=1905.152792577399&scale=0.5870222003877485&rotation=0&layout=singlePageLayout
!!!ENC: Anna Maria Matuszewska
!!!EEV: 2024/11/12
*-	*-
